X:1
T:[ID 7-126]
T:[ID 7-126]
T:Bezeichnung standardisiert: March March
T:Urheber unbekannt Datum in der hier transkribierten schriftlichen Quelle: 1799
C:Urheber unbekannt
C:Datum in der hier transkribierten schriftlichen Quelle: 1799
%%score 1 2
L:1/8
M:2/4
K:D
V:1 treble nm="Violino Primo"
V:2 treble nm="Secondo"
V:1
 d2 a/g/f/e/ | dA/G/ FE | DABc | d2 e2 |"^O)" fd d/e/f/d/ | eAAe |"^O)" fd d/e/f/d/ | eAAe | %8
 f2 ^g2 | a^g/f/ ed | c2 B2 | AA/A/ A/c/B/^G/ | A4 :: e2 e2 | e/d/c/B/ Af/e/ |"^O)" dB B/c/d/B/ | %16
 cA Ff/e/ |"^O)" dB B/c/d/B/ | cA Ff/e/ | d2 c2 | B4 | A2 B2 | A3 A | df/a/ g/f/g/e/ | %24
 f/g/a/f/ df/a/ | ge e/f/g/e/ | fd df/a/ x4 | ge e/f/g/e/ | fddA | B/c/d/B/ c/d/e/c/ | %30
 d/e/f/d/ e/f/g/e/ | f/g/a/b/ f/e/d/c/ | dd/d/ d/f/e/c/ :| d4 :| %34
V:2
 !fermata!d2 f/e/d/c/ | BF/E/ DC | DFGA | F2 A2 |"^O)" df fe/d/ | cccc |"^O)" df fe/d/ | cccc | %8
 d2 e2 | fe/d/ cB | A2 ^G2 | FF/F/ A/E/D/B,/ |{B,} C4 :: c2 c2 | A/B/c/d/ cd/c/ |"^O)" Bd dc/B/ | %16
 ^AAAA |"^O)" Bd dc/B/ | ^AAAA | B2 F2 | B,4 | F2 ^G2 | F3 F | F/A/d/f/ e/d/e/c/ | d/e/f/d/ dd/f/ | %25
 eg gf/d/ |"^1)" x4 eccd/e/ | dAFF | G/A/B/G/ A/B/c/A/ | B/c/d/B/ c/d/e/c/ | d/e/f/g/ dA/G/ | %31
 FF/F/ F/A/G/E/ | F4 :| x4 :| %34

